src/components/00-materials/images-raw/Microwave.svg

<svg width="96" height="96" viewBox="0 0 96 96" fill="none" xmlns="http://www.w3.org/2000/svg">
<path d="M54.16 31.99H15C13.8954 31.99 13 32.8854 13 33.99V62.01C13 63.1146 13.8954 64.01 15 64.01H54.16C55.2646 64.01 56.16 63.1146 56.16 62.01V33.99C56.16 32.8854 55.2646 31.99 54.16 31.99Z" stroke="#00008F" stroke-width="2" stroke-miterlimit="10"/>
<path d="M84.87 27.04H70.17C69.6177 27.04 69.17 27.4878 69.17 28.04V46.04C69.17 46.5923 69.6177 47.04 70.17 47.04H84.87C85.4223 47.04 85.87 46.5923 85.87 46.04V28.04C85.87 27.4878 85.4223 27.04 84.87 27.04Z" stroke="#00008F" stroke-width="2" stroke-miterlimit="10"/>
<path d="M73.61 37.33L73.61 37.33L73.11 37.33M73.61 37.33H73.11M73.61 37.33H73.61M73.61 37.33L73.2564 37.6836M73.11 37.33C73.11 37.4626 73.1627 37.5898 73.2564 37.6836M73.11 37.33H73.61M73.61 37.33L73.2564 37.6836M73.61 37.33L73.2564 37.6836M73.61 37.33H75.5315M73.61 37.33L75.54 37.83L75.5303 37.3301C75.5307 37.3301 75.5311 37.3301 75.5315 37.33M73.61 37.33L73.61 36.33L75.5315 36.33C75.5336 36.3303 75.5356 36.3313 75.5372 36.3328C75.5387 36.3344 75.5397 36.3364 75.54 36.3385V37.3215M73.61 37.33L75.54 37.3215M75.5315 37.33C75.5336 37.3297 75.5356 37.3287 75.5372 37.3272C75.5387 37.3256 75.5397 37.3236 75.54 37.3215M75.5315 37.33L75.54 37.3215M73.61 31.5L75.54 31.5L75.54 32.45L73.61 32.45L73.61 31.5ZM79.55 31.5H81.48V32.45H79.55L79.55 31.5ZM79.55 36.33H81.48V37.33H79.55V36.33ZM73.61 41.34H75.5315C75.5336 41.3403 75.5356 41.3413 75.5372 41.3428C75.5387 41.3444 75.5397 41.3464 75.54 41.3485V42.3315C75.5397 42.3336 75.5387 42.3356 75.5372 42.3372C75.5356 42.3387 75.5336 42.3397 75.5315 42.34H73.61V41.34ZM79.55 41.34H81.48V42.34H79.55V41.34Z" stroke="#00008F"/>
<path d="M78.52 59.96C80.7292 59.96 82.52 58.1691 82.52 55.96C82.52 53.7508 80.7292 51.96 78.52 51.96C76.3109 51.96 74.52 53.7508 74.52 55.96C74.52 58.1691 76.3109 59.96 78.52 59.96Z" stroke="#00008F" stroke-width="2" stroke-linejoin="round"/>
<path d="M85.73 65.1899H71.31C71.1719 65.1899 71.06 65.3019 71.06 65.4399V68.8599C71.06 68.998 71.1719 69.1099 71.31 69.1099H85.73C85.8681 69.1099 85.98 68.998 85.98 68.8599V65.4399C85.98 65.3019 85.8681 65.1899 85.73 65.1899Z" stroke="#00008F" stroke-width="2" stroke-miterlimit="10"/>
<path d="M89 22.0801H7C5.89543 22.0801 5 22.9755 5 24.0801V71.9701C5 73.0746 5.89543 73.9701 7 73.9701H89C90.1046 73.9701 91 73.0746 91 71.9701V24.0801C91 22.9755 90.1046 22.0801 89 22.0801Z" stroke="#00008F" stroke-width="2" stroke-miterlimit="10"/>
<path d="M64.06 22.1101V73.9901" stroke="#00008F" stroke-width="2" stroke-miterlimit="10"/>
<path d="M72.99 75.9199H80.24M12.77 75.9199H20.02H12.77Z" stroke="#00008F" stroke-width="2" stroke-miterlimit="10" stroke-linecap="round"/>
</svg>

<svg width="96" height="96" viewBox="0 0 96 96" fill="none" xmlns="http://www.w3.org/2000/svg"><path d="M54.16 31.99H15a2 2 0 00-2 2v28.02a2 2 0 002 2h39.16a2 2 0 002-2V33.99a2 2 0 00-2-2zM84.87 27.04h-14.7a1 1 0 00-1 1v18a1 1 0 001 1h14.7a1 1 0 001-1v-18a1 1 0 00-1-1z" stroke="#00008F" stroke-width="2" stroke-miterlimit="10"/><path d="M73.61 37.33h0-.5m.5 0h-.5m.5 0h0m0 0l-.354.354m-.146-.354a.5.5 0 00.146.354m-.146-.354h.5m0 0l-.354.354m.354-.354l-.354.354m.354-.354h1.921m-1.921 0l1.93.5-.01-.5h.001m-1.921 0v-1h1.921a.01.01 0 01.006.003.01.01 0 01.003.006v.983m-1.93.008l1.93-.008m-.009.008a.01.01 0 00.006-.003.01.01 0 00.003-.005m-.009.008l.009-.008M73.61 31.5h1.93v.95h-1.93v-.95zm5.94 0h1.93v.95h-1.93v-.95zm0 4.83h1.93v1h-1.93v-1zm-5.94 5.01h1.921a.01.01 0 01.006.003.01.01 0 01.003.005v.983a.01.01 0 01-.003.006.01.01 0 01-.006.003H73.61v-1zm5.94 0h1.93v1h-1.93v-1z" stroke="#00008F"/><path d="M78.52 59.96a4 4 0 100-8 4 4 0 000 8z" stroke="#00008F" stroke-width="2" stroke-linejoin="round"/><path d="M85.73 65.19H71.31a.25.25 0 00-.25.25v3.42c0 .138.112.25.25.25h14.42a.25.25 0 00.25-.25v-3.42a.25.25 0 00-.25-.25z" stroke="#00008F" stroke-width="2" stroke-miterlimit="10"/><path d="M89 22.08H7a2 2 0 00-2 2v47.89a2 2 0 002 2h82a2 2 0 002-2V24.08a2 2 0 00-2-2zM64.06 22.11v51.88" stroke="#00008F" stroke-width="2" stroke-miterlimit="10"/><path d="M72.99 75.92h7.25m-67.47 0h7.25-7.25z" stroke="#00008F" stroke-width="2" stroke-miterlimit="10" stroke-linecap="round"/></svg>
